build/Karasa-Jaga/scalable/actions/zoom-original-symbolic.svg

<svg height="16" width="16" xmlns="http://www.w3.org/2000/svg"><g fill="#bebebe"><path d="m6.4600883.97554511c-3.0429888 0-5.48836989 2.44538039-5.48836989 5.48836989 0 3.0429875 2.44743349 5.521039 5.48836989 5.521039 1.082307 0 2.0864808-.339831 2.9401981-.88206a.30202806.30202806 0 0 1 .098007-.03267.30202806.30202806 0 0 1 .2940198.09801l3.5935758 3.789589c.05327.05867.05864.07116.163344.06534.125842-.007.258498-.05796.29402-.09801l1.078073-1.241417c.135176-.155565.137847-.293659.03267-.392026l-3.75692-3.5609072a.30202806.30202806 0 0 1 -.06534-.065338.30202806.30202806 0 0 1 -.03267-.2613509.30202806.30202806 0 0 1 .03267-.065338c.527555-.8465054.849391-1.808325.849391-2.8748604 0-3.0409373-2.478051-5.48836989-5.5210393-5.48836989zm0 1.73145009c2.0841766 0 3.7895887 1.6693224 3.7895887 3.7569198 0 2.0875967-1.7019915 3.789589-3.7895887 3.789589-2.0875977 0-3.7569199-1.7054127-3.7569199-3.789589 0-2.084177 1.6727428-3.7569198 3.7569199-3.7569198z"/><path d="m4.2644993 5.7000891h-.8243699v-.4950431q.8922592 0 1.052284-.6760265h.4509788v3.7740376h-.6788929z"/><path d="m6.7795095 7.5258928v.7771643h-.7273852v-.7771643zm0-1.9908181v.7771642h-.7273852v-.7771642z"/><path d="m8.176089 5.7000891h-.8243699v-.4950431q.8922593 0 1.052284-.6760265h.4509788v3.7740376h-.6788929z"/></g></svg>

<?xml version="1.0" encoding="UTF-8" standalone="no"?>
<!-- Created with Inkscape (http://www.inkscape.org/) -->

<svg
   xmlns:dc="http://purl.org/dc/elements/1.1/"
   xmlns:cc="http://creativecommons.org/ns#"
   xmlns:rdf="http://www.w3.org/1999/02/22-rdf-syntax-ns#"
   xmlns:svg="http://www.w3.org/2000/svg"
   xmlns="http://www.w3.org/2000/svg"
   xmlns:sodipodi="http://sodipodi.sourceforge.net/DTD/sodipodi-0.dtd"
   xmlns:inkscape="http://www.inkscape.org/namespaces/inkscape"
   version="1.0"
   width="16"
   height="16"
   id="svg7854"
   sodipodi:docname="zoom-original-symbolic.svg"
   inkscape:version="0.92.2 (unknown)">
  <sodipodi:namedview
     pagecolor="#ffffff"
     bordercolor="#666666"
     borderopacity="1"
     objecttolerance="10"
     gridtolerance="10"
     guidetolerance="10"
     inkscape:pageopacity="0"
     inkscape:pageshadow="2"
     inkscape:window-width="1366"
     inkscape:window-height="716"
     id="namedview22"
     showgrid="false"
     inkscape:zoom="20.85965"
     inkscape:cx="4.7325984"
     inkscape:cy="8.5645682"
     inkscape:window-x="0"
     inkscape:window-y="27"
     inkscape:window-maximized="1"
     inkscape:current-layer="svg7854" />
  <metadata
     id="metadata5314">
    <rdf:RDF>
      <cc:Work
         rdf:about="">
        <dc:format>image/svg+xml</dc:format>
        <dc:type
           rdf:resource="http://purl.org/dc/dcmitype/StillImage" />
        <dc:title />
      </cc:Work>
    </rdf:RDF>
  </metadata>
  <defs
     id="defs7856">
    <linearGradient
       id="linearGradient5841">
      <stop
         id="stop5843"
         style="stop-color:#37e700;stop-opacity:1"
         offset="0" />
      <stop
         id="stop5849"
         style="stop-color:#3dfe00;stop-opacity:1"
         offset="0.5" />
      <stop
         id="stop5845"
         style="stop-color:#2aad00;stop-opacity:1"
         offset="1" />
    </linearGradient>
    <linearGradient
       x1="22.146999"
       y1="15.722"
       x2="22.402"
       y2="34.612"
       id="linearGradient4117"
       gradientUnits="userSpaceOnUse">
      <stop
         id="stop4113"
         style="stop-color:#ffffff;stop-opacity:1"
         offset="0" />
      <stop
         id="stop4115"
         style="stop-color:#ffffff;stop-opacity:0"
         offset="1" />
    </linearGradient>
    <linearGradient
       x1="15"
       y1="2"
       x2="15"
       y2="21"
       id="linearGradient3696"
       gradientUnits="userSpaceOnUse">
      <stop
         id="stop3700"
         style="stop-color:#eeeeec;stop-opacity:1"
         offset="0" />
      <stop
         id="stop3702"
         style="stop-color:#babdb6;stop-opacity:1"
         offset="0.79220003" />
      <stop
         id="stop3704"
         style="stop-color:#a1a59b;stop-opacity:1"
         offset="1" />
    </linearGradient>
    <linearGradient
       id="linearGradient3587-6-5-3-5-7">
      <stop
         id="stop3589-9-2-2-6-2"
         style="stop-color:#000000;stop-opacity:1"
         offset="0" />
      <stop
         id="stop3591-7-4-73-5-1"
         style="stop-color:#363636;stop-opacity:1"
         offset="1" />
    </linearGradient>
  </defs>
  <path
     d="m 6.4600883,0.97554511 c -3.0429888,0 -5.48836989,2.44538039 -5.48836989,5.48836989 0,3.0429875 2.44743349,5.521039 5.48836989,5.521039 1.082307,0 2.0864808,-0.339831 2.9401981,-0.88206 a 0.30202806,0.30202806 0 0 1 0.098007,-0.03267 0.30202806,0.30202806 0 0 1 0.2940198,0.09801 l 3.5935758,3.789589 c 0.05327,0.05867 0.05864,0.07116 0.163344,0.06534 0.125842,-0.007 0.258498,-0.05796 0.29402,-0.09801 l 1.078073,-1.241417 c 0.135176,-0.155565 0.137847,-0.293659 0.03267,-0.392026 l -3.75692,-3.5609072 a 0.30202806,0.30202806 0 0 1 -0.06534,-0.065338 0.30202806,0.30202806 0 0 1 -0.03267,-0.2613509 0.30202806,0.30202806 0 0 1 0.03267,-0.065338 c 0.527555,-0.8465054 0.849391,-1.808325 0.849391,-2.8748604 0,-3.0409373 -2.478051,-5.48836989 -5.5210393,-5.48836989 z m 0,1.73145009 c 2.0841766,0 3.7895887,1.6693224 3.7895887,3.7569198 0,2.0875967 -1.7019915,3.789589 -3.7895887,3.789589 -2.0875977,0 -3.7569199,-1.7054127 -3.7569199,-3.789589 0,-2.084177 1.6727428,-3.7569198 3.7569199,-3.7569198 z"
     id="path12171"
     style="color:#000000;fill:#bebebe;fill-opacity:1;fill-rule:nonzero;stroke:none;stroke-width:1;marker:none;visibility:visible;display:inline;overflow:visible;enable-background:accumulate" />
  <g
     id="g842">
    <path
       d="M 4.2644993,5.7000891 H 3.4401294 V 5.205046 q 0.8922592,0 1.052284,-0.6760265 H 4.9433922 V 8.3030571 H 4.2644993 Z"
       style="font-style:normal;font-variant:normal;font-weight:bold;font-stretch:normal;font-size:medium;line-height:125%;font-family:FreeSans;-inkscape-font-specification:'FreeSans Bold';letter-spacing:0px;word-spacing:0px;fill:#bebebe;fill-opacity:1;stroke:none;stroke-width:0.68424499"
       id="path829"
       inkscape:connector-curvature="0" />
    <path
       d="M 6.7795095,7.5258928 V 8.3030571 H 6.0521243 V 7.5258928 Z m 0,-1.9908181 V 6.3122389 H 6.0521243 V 5.5350747 Z"
       style="font-style:normal;font-variant:normal;font-weight:bold;font-stretch:normal;font-size:medium;line-height:125%;font-family:FreeSans;-inkscape-font-specification:'FreeSans Bold';letter-spacing:0px;word-spacing:0px;fill:#bebebe;fill-opacity:1;stroke:none;stroke-width:0.68424499"
       id="path831"
       inkscape:connector-curvature="0" />
    <path
       d="M 8.176089,5.7000891 H 7.3517191 V 5.205046 q 0.8922593,0 1.052284,-0.6760265 H 8.8549819 V 8.3030571 H 8.176089 Z"
       style="font-style:normal;font-variant:normal;font-weight:bold;font-stretch:normal;font-size:medium;line-height:125%;font-family:FreeSans;-inkscape-font-specification:'FreeSans Bold';letter-spacing:0px;word-spacing:0px;fill:#bebebe;fill-opacity:1;stroke:none;stroke-width:0.68424499"
       id="path833"
       inkscape:connector-curvature="0" />
  </g>
</svg>
